brandFactory_export/1.Light/Factura_Plan_Documento_1Light.svg

<?xml version="1.0" encoding="UTF-8"?>
<svg width="24px" height="24px" viewBox="0 0 24 24" version="1.1" xmlns="http://www.w3.org/2000/svg" xmlns:xlink="http://www.w3.org/1999/xlink">
    <title>1.Light/Factura_Plan_Documento_1Light</title>
    <g id="Symbols" stroke="none" stroke-width="1" fill="none" fill-rule="evenodd">
        <g id="1.Light/Factura_Plan_Documento_1Light" fill="#5CB615" fill-rule="nonzero">
            <path d="M13.1882353,-3.24185123e-14 C13.2421569,-3.24185123e-14 13.293219,0.0128676471 13.3385025,0.0356838916 C13.3705832,0.0514353661 13.4004636,0.0724427702 13.4268908,0.0974789916 L19.9815126,6.65210084 C20.0453782,6.71596639 20.0789916,6.8 20.0789916,6.8907563 L20.0789916,22.6218487 C20.0789916,23.1495798 19.6151261,23.6134454 19.087395,23.6134454 L4.01176471,23.6134454 C3.49411765,23.6134454 3.02016807,23.1394958 3.02016807,22.6218487 L3.02016807,0.991596639 C3.02016807,0.490756303 3.51092437,8.52651283e-14 4.01176471,8.52651283e-14 L13.1882353,-3.24185123e-14 L13.1882353,-3.24185123e-14 Z M12.8511681,0.672 L4.01176471,0.672268908 C3.88403361,0.672268908 3.69243697,0.863865546 3.69243697,0.991596639 L3.69243697,22.6218487 C3.69243697,22.7663866 3.86722689,22.9411765 4.01176471,22.9411765 L19.087395,22.9411765 C19.2420168,22.9411765 19.4067227,22.7764706 19.4067227,22.6218487 L19.4061681,7.226 L16.4655462,7.22689076 C15.410084,7.22689076 14.5058824,6.88067227 13.8504202,6.22857143 C13.194958,5.57647059 12.8521008,4.67226891 12.8521008,3.61344538 L12.8511681,0.672 Z M16.4655462,19.0084034 C16.6504202,19.0084034 16.8016807,19.1596639 16.8016807,19.3445378 C16.8016807,19.5294118 16.6537815,19.6806723 16.4655462,19.6806723 L6.63361345,19.6806723 C6.4487395,19.6806723 6.29747899,19.5294118 6.29747899,19.3445378 C6.29747899,19.1596639 6.4487395,19.0084034 6.63361345,19.0084034 L16.4655462,19.0084034 Z M16.4655462,15.405042 C16.6504202,15.405042 16.8016807,15.5563025 16.8016807,15.7411765 C16.8016807,15.9260504 16.6537815,16.0773109 16.4655462,16.0773109 L6.63361345,16.0773109 C6.4487395,16.0773109 6.29747899,15.9260504 6.29747899,15.7411765 C6.29747899,15.5563025 6.4487395,15.405042 6.63361345,15.405042 L16.4655462,15.405042 Z M16.4655462,11.7983193 C16.6504202,11.7983193 16.8016807,11.9495798 16.8016807,12.1344538 C16.8016807,12.3193277 16.6537815,12.4705882 16.4655462,12.4705882 L6.63361345,12.4705882 C6.4487395,12.4705882 6.29747899,12.3193277 6.29747899,12.1344538 C6.29747899,11.9495798 6.4487395,11.7983193 6.63361345,11.7983193 L16.4655462,11.7983193 Z M18.9321681,6.554 L13.5241681,1.146 L13.5243697,3.61344538 C13.5243697,5.39831933 14.6806723,6.55462185 16.4655462,6.55462185 L18.9321681,6.554 Z" id="Factura_Plan_Documento_1Light"></path>
        </g>
    </g>
</svg>

<svg width="24" height="24" viewBox="0 0 24 24" xmlns="http://www.w3.org/2000/svg"><path d="M13.188 0a.36.36 0 01.239.097l6.555 6.555a.333.333 0 01.097.239v15.73c0 .529-.464.992-.992.992H4.012c-.518 0-.992-.474-.992-.991V.992C3.02.49 3.51 0 4.012 0h9.176zm-.337.672h-8.84c-.127 0-.319.192-.319.32v21.63c0 .144.175.32.32.32h15.075c.155 0 .32-.166.32-.32V7.226h-2.941c-1.056 0-1.96-.345-2.616-.997-.655-.653-.998-1.557-.998-2.616V.672zm3.615 18.336c.184 0 .336.152.336.337a.335.335 0 01-.336.336H6.634a.337.337 0 01-.337-.336c0-.185.152-.337.337-.337h9.832zm0-3.603c.184 0 .336.151.336.336a.335.335 0 01-.336.336H6.634a.337.337 0 01-.337-.336c0-.185.152-.336.337-.336h9.832zm0-3.607c.184 0 .336.152.336.336a.335.335 0 01-.336.337H6.634a.337.337 0 01-.337-.337c0-.184.152-.336.337-.336h9.832zm2.466-5.244l-5.408-5.408v2.467c0 1.785 1.157 2.942 2.942 2.942l2.466-.001z" fill="#5CB615" fill-rule="nonzero"/></svg>
